swiss/communes/0023.svg

<?xml version="1.0" encoding="UTF-8" standalone="no"?>
<!-- Created with Inkscape (http://www.inkscape.org/) -->
<svg
   xmlns:svg="http://www.w3.org/2000/svg"
   xmlns="http://www.w3.org/2000/svg"
   version="1.0"
   width="229.92165"
   height="269.31738"
   id="svg2780">
  <defs
     id="defs2782" />
  <g
     transform="translate(-74.453091,-62.056616)"
     id="layer1">
    <path
       d="M 75.453091,63.056616 L 79.597125,237.12374 C 82.55714,361.4574 296.27068,361.4574 299.2307,237.12374 L 303.37473,63.056616 L 75.453091,63.056616 z "
       style="fill:#2166ba;fill-opacity:1;fill-rule:evenodd;stroke:#000000;stroke-width:2;stroke-linecap:butt;stroke-miterlimit:4;stroke-dashoffset:0;stroke-opacity:1"
       id="path3282" />
    <path
       d="M 206.07824,211.10444 L 228.36863,212.54141 L 225.2657,236.14781 C 225.40121,240.34784 225.4304,243.7679 226.43865,245.59556 C 227.46678,247.45924 228.69646,249.95008 226.51164,250.4761 C 224.27806,251.01386 199.78182,274.82351 199.78182,274.82351 C 199.78182,274.82351 198.32319,275.48297 197.94941,273.98785 C 197.46591,272.05387 198.04194,271.40787 198.04194,271.40787 L 194.12609,275.74727 C 194.12609,275.74727 196.2125,279.58036 194.43056,282.97631 C 192.59327,286.47775 185.35032,288.7478 182.23547,288.7478 C 179.12062,288.7478 182.44581,285.02672 183.49652,283.68479 L 188.26132,275.89325 L 183.49652,283.68479 C 183.49652,283.68479 180.58757,283.89737 178.543,283.74266 C 179.14146,280.76871 182.67857,276.73884 184.92126,273.37481 C 187.16395,270.01078 188.98511,268.21161 201.68463,259.80812 C 214.32282,251.44521 208.07053,243.97699 203.64423,237.37236 C 199.2586,230.82841 197.01939,224.13519 199.88505,218.40387 C 202.7507,212.67255 204.16808,212.08326 206.07824,211.10444 z "
       style="fill:#ffffff;fill-opacity:1;fill-rule:evenodd;stroke:#000000;stroke-width:1px;stroke-linecap:butt;stroke-linejoin:miter;stroke-opacity:1"
       id="path3296" />
    <path
       d="M 218.66488,222.36154 C 211.062,218.95385 200.72071,215.46522 207.19959,214.71766 C 213.67847,213.9701 222.64923,216.71116 222.64923,216.71116 L 218.66488,222.36154 z "
       style="fill:none;fill-opacity:0.75;fill-rule:evenodd;stroke:#000000;stroke-width:1px;stroke-linecap:butt;stroke-linejoin:miter;stroke-opacity:1"
       id="path4281" />
    <path
       d="M 178.03577,175.64632 L 150.00853,176.83985 C 145.84657,174.4641 135.15152,169.59335 138.60966,165.67584 C 134.9588,170.76667 129.82494,165.67275 128.10199,165.7278 C 126.5035,165.77888 120.0225,168.28916 114.82327,170.08711 L 114.92288,166.3527 L 111.81254,167.62585 C 111.81254,167.62585 107.02889,175.41706 101.82898,175.6722 C 96.629061,175.92735 93.925013,172.60135 93.053388,171.26489 C 92.181763,169.92841 94.347407,170.0211 96.556238,168.81203 C 98.832548,167.56602 102.9485,165.4216 102.9485,165.4216 L 96.925123,168.15863 C 96.925123,168.15863 94.460669,165.70839 94.959173,164.31059 C 95.459267,162.90833 103.81382,159.92223 111.44759,159.47234 C 119.16947,159.02245 131.84109,154.53133 136.18465,155.344 C 140.61401,156.17274 156.03369,161.31308 159.66243,162.0237"
       style="fill:#ffffff;fill-opacity:1;fill-rule:evenodd;stroke:#000000;stroke-width:1px;stroke-linecap:butt;stroke-linejoin:miter;stroke-opacity:1"
       id="path4285" />
    <path
       d="M 115.32095,126.34129 C 127.43486,127.92712 143.12617,131.96978 138.20999,121.40395 C 132.48029,121.7319 119.56363,118.39447 115.32095,126.34129 z "
       style="fill:#ffffff;fill-opacity:1;fill-rule:evenodd;stroke:#000000;stroke-width:1px;stroke-linecap:butt;stroke-linejoin:miter;stroke-opacity:1"
       id="path4291" />
    <path
       d="M 225.2657,236.14781 C 224.14191,234.6825 216.81394,226.44591 219.07335,218.45402 L 218.0636,204.86371 L 219.07335,218.45402 C 214.36725,216.53407 207.06461,212.48394 202.8388,209.8585 C 197.62162,206.61714 186.19827,198.09506 179.67862,190.02401 C 173.03224,181.7961 158.2681,167.4575 157.37456,163.07275 C 156.68152,159.67186 154.52899,153.34888 156.11611,142.32863 L 155.61773,145.06969 C 155.61773,145.06969 148.51588,141.95485 147.89291,139.96135 C 147.26994,137.96784 146.89616,136.7219 146.89616,136.7219 C 142.00158,135.97556 137.05494,135.78709 133.37589,131.6954 C 127.31355,131.69331 121.42878,131.16532 118.09619,130.27952 C 114.76361,129.39372 109.60719,127.72318 112.7637,126.38061 C 115.84577,125.0697 137.02955,129.04322 137.67622,125.88224 C 138.32289,122.72126 135.54335,114.29906 131.40377,112.47145 C 127.19034,110.61123 128.1036,111.82236 125.97696,111.28652 C 123.85033,110.75068 121.49414,109.02979 120.48226,110.55719 C 119.51057,112.02392 104.34033,106.51385 105.4182,100.27377 C 124.57659,99.350008 124.46685,96.794754 127.93651,95.140662 C 131.40617,93.48657 133.48757,92.744764 137.09815,92.037709 C 140.70873,91.330655 143.93109,91.04419 146.95036,90.291149 C 149.98917,89.533232 155.08821,85.152142 157.98501,77.336026 C 158.32688,79.739644 158.47743,84.082713 157.83278,88.540574 C 159.65497,86.390847 161.34905,80.488542 163.59174,76.418476 C 164.08385,80.990734 164.84027,84.153373 163.21796,87.756518 C 165.87596,84.683203 168.53396,81.609887 171.19196,78.536572 L 171.97786,93.919124 L 179.91353,91.618927 C 185.45735,91.080243 190.20826,91.246368 195.48777,92.117303 C 190.83626,92.781803 186.88957,94.151113 181.53325,94.110804 C 186.10169,94.816836 190.67014,95.522868 195.23858,96.2289 C 191.57375,96.753691 190.11144,97.89519 184.77269,98.596183 C 190.22337,98.90324 197.34796,99.738903 200.59611,100.83887 C 197.27865,101.54994 193.78498,102.08481 190.37942,102.70778 C 195.77849,103.95372 203.02768,104.40675 206.57662,106.4456 C 202.91179,106.25428 199.86367,106.50347 196.11074,107.19316 C 203.73875,108.19113 207.84271,110.15822 213.18009,112.30151 C 209.7078,112.37449 207.82133,112.79988 203.46803,112.78477 C 211.07344,113.76136 214.5381,115.26656 217.91466,117.03607 C 215.049,117.28526 212.18334,117.53445 209.31768,117.78364 C 213.98308,118.58907 217.41506,119.92311 220.58274,121.87385 C 217.77877,122.12304 214.09379,122.01983 210.93741,122.26902 C 220.68489,123.65589 223.38427,126.09998 227.75758,127.75115 C 224.84535,128.36282 222.54983,128.44588 219.28519,128.00033 C 230.09248,130.57909 228.82991,131.74823 230.47467,132.91736 C 227.81163,132.35227 224.70809,132.75628 223.45466,132.71979 C 229.03634,134.6403 231.44638,136.56082 233.23971,138.21703 C 231.57846,138.25856 229.9172,138.30009 228.25595,138.34162 C 234.16484,140.13755 238.04741,141.93347 239.55124,143.9056 C 237.98313,143.97858 235.3578,143.69916 233.61349,143.94835 C 239.12844,145.52776 242.61707,148.69299 244.07937,150.80101 C 241.75866,150.25103 239.52605,149.43674 236.85293,149.67967 C 242.44468,152.15017 244.15999,154.35636 245.69909,156.03395 C 243.74712,156.07548 241.79515,156.11702 239.84318,156.15855 C 245.3166,158.52079 248.4113,161.05924 250.18447,163.50958 C 248.2325,163.17733 247.18795,162.64719 245.47388,162.33663 C 253.36282,171.18859 262.70799,183.04944 263.83819,191.07506 C 264.95623,199.0143 267.27928,203.66479 273.57011,203.33946 C 279.85578,203.0144 281.39495,197.70304 281.50746,194.43549 C 281.61991,191.16978 279.06353,188.32411 275.27318,188.23703 C 271.57093,188.14995 270.87396,191.3549 270.0465,194.05019 C 268.51424,192.86903 267.47144,188.22073 271.17044,185.45062 C 273.95237,183.36728 281.47391,183.56217 284.87943,191.25752 C 288.25233,198.87913 281.88855,209.11519 274.90933,209.70367 C 268.0176,210.28478 267.54005,208.66973 266.25708,207.7404 C 266.11943,212.80195 265.45588,218.89369 262.90556,226.33772 C 260.34585,233.80917 254.80673,239.33488 255.27771,243.93676 C 255.74952,248.54673 262.5808,251.23985 262.58599,254.7952 C 262.59118,258.26245 245.08813,282.06614 244.09448,285.35353 C 243.09317,288.6663 241.05657,289.68182 240.76694,288.0758 C 240.46192,286.38439 239.71859,285.11319 239.71859,285.11319 C 239.71859,285.11319 236.29669,287.64156 236.42128,290.75641 C 236.54587,293.87126 236.0475,300.77293 228.98213,302.3134 C 222.12602,303.80825 221.90166,303.05471 224.14435,299.44149 C 226.38704,295.82826 229.50189,289.22479 229.50189,289.22479 L 225.39029,296.82501 C 225.39029,296.82501 222.18368,297.23361 220.40654,296.94961 C 220.65573,294.55118 223.92647,290.02911 226.21084,286.52648 C 228.53537,282.96227 230.71236,281.09446 235.4824,277.73192 C 239.52329,274.88338 238.16595,275.30442 242.30482,269.98573 C 246.47671,264.62462 245.79345,259.21278 241.93104,255.22578 C 238.06863,251.23877 228.12563,239.87688 225.2657,236.14781 z "
       style="fill:#ffffff;fill-opacity:1;fill-rule:evenodd;stroke:#000000;stroke-width:1px;stroke-linecap:butt;stroke-linejoin:miter;stroke-opacity:1"
       id="path4279" />
    <path
       d="M 186.02901,183.12458 C 184.84863,185.46848 182.10875,188.25754 179.52001,189.24501 C 171.35265,188.55937 160.70493,188.51357 157.51687,187.34351 C 154.47431,186.22685 149.05113,185.85845 147.27101,187.09691 C 145.53118,188.30733 142.31174,188.57361 139.17134,186.93323 C 135.21117,189.97858 130.71258,194.64566 125.66986,197.14993 L 125.06826,193.80987 L 120.73145,196.27777 C 120.73145,196.27777 119.23632,205.62231 114.37716,207.49122 C 109.518,209.36013 103.78669,208.48797 102.54075,207.49122 C 101.29481,206.49447 99.4259,205.8715 103.03912,204.00259 C 106.65234,202.13368 111.5115,196.90074 111.5115,196.90074 L 105.78019,202.13368 C 105.78019,202.13368 102.36479,201.0498 102.40104,199.56622 C 102.4374,198.07789 110.80216,192.08909 117.66499,189.2599 C 124.49635,186.44369 136.37602,177.24638 140.75581,176.65958 C 145.22212,176.06119 148.67182,176.15479 151.51651,174.50774 C 154.39864,172.83901 169.70339,166.38689 175.17834,170.6693"
       style="fill:#ffffff;fill-opacity:1;fill-rule:evenodd;stroke:#000000;stroke-width:1px;stroke-linecap:butt;stroke-linejoin:miter;stroke-opacity:1"
       id="path2323" />
    <path
       d="M 143.16439 103.5567 A 2.3346808 2.3346808 0 1 1  138.49503,103.5567 A 2.3346808 2.3346808 0 1 1  143.16439 103.5567 z"
       transform="translate(-1.3215175,-1.1453151)"
       style="opacity:1;fill:#000000;fill-opacity:1;fill-rule:evenodd;stroke:none;stroke-width:1;stroke-linecap:round;stroke-linejoin:miter;stroke-miterlimit:4;stroke-dasharray:none;stroke-dashoffset:0;stroke-opacity:1"
       id="path3298" />
    <path
       d="M 134.79478,101.92683 C 136.07258,97.374686 141.90695,97.786471 143.4752,100.5184 L 135.46981,100.65692"
       style="fill:none;fill-opacity:0.75;fill-rule:evenodd;stroke:#000000;stroke-width:1px;stroke-linecap:butt;stroke-linejoin:miter;stroke-opacity:1"
       id="path3300" />
    <path
       d="M 102.37355,97.169369 C 102.3295,105.18658 108.86503,112.1765 110.83126,110.29644 C 112.84302,108.37284 107.35126,101.13392 102.37355,97.169369 z "
       style="fill:#ffffff;fill-opacity:1;fill-rule:evenodd;stroke:#000000;stroke-width:1px;stroke-linecap:butt;stroke-linejoin:miter;stroke-opacity:1"
       id="path3302" />
    <path
       d="M 113.82167,107.0759 C 121.42189,103.46267 125.50234,108.38413 126.90402,111.31209"
       style="fill:none;fill-opacity:0.75;fill-rule:evenodd;stroke:#000000;stroke-width:1px;stroke-linecap:butt;stroke-linejoin:miter;stroke-opacity:1"
       id="path11538" />
    <path
       d="M 114.26418,96.277095 C 108.02696,99.384116 109.06532,105.05908 110.7115,108.38251 C 112.35767,111.70595 117.99123,113.04752 119.81455,110.90189 C 121.68098,108.70554 118.28798,107.42715 115.30775,106.13172 C 112.32752,104.8363 112.32212,99.767886 114.26418,96.277095 z "
       style="fill:#ffffff;fill-opacity:1;fill-rule:evenodd;stroke:#000000;stroke-width:1px;stroke-linecap:butt;stroke-linejoin:miter;stroke-opacity:1"
       id="path4273" />
    <path
       d="M 161.44263,94.525448 C 175.80312,76.376606 187.69677,78.491034 187.69677,78.491034 C 187.41549,81.209701 185.05955,82.732876 183.54517,84.49424 C 184.56398,84.005553 185.77576,83.735872 186.70335,83.675645 C 185.60537,85.552195 180.83278,90.280439 178.99576,91.864566 C 179.54487,91.727628 180.11513,91.805708 180.46087,91.758863 C 177.99125,94.480548 175.69342,97.211898 172.63148,99.282908"
       style="fill:#ffffff;fill-opacity:1;fill-rule:evenodd;stroke:#000000;stroke-width:1px;stroke-linecap:butt;stroke-linejoin:miter;stroke-opacity:1"
       id="path11540" />
    <path
       d="M 146.99456,137.04763 C 167.95252,136.09894 171.19196,117.03607 171.19196,115.16717 C 171.19196,113.29826 170.4444,105.07506 168.20171,102.45859 C 165.95902,99.842122 166.08362,97.101057 170.19521,91.245146 C 174.30681,85.389234 180.16272,83.146545 180.16272,83.146545"
       style="fill:none;fill-opacity:0.75;fill-rule:evenodd;stroke:#000000;stroke-width:1px;stroke-linecap:butt;stroke-linejoin:miter;stroke-opacity:1"
       id="path4283" />
    <path
       d="M 114.26721,117.87314 C 114.83987,124.65693 116.52983,129.79673 118.49606,127.91667 C 120.50782,125.99307 118.54011,122.4544 114.26721,117.87314 z "
       style="fill:#ffffff;fill-opacity:1;fill-rule:evenodd;stroke:#000000;stroke-width:1px;stroke-linecap:butt;stroke-linejoin:miter;stroke-opacity:1"
       id="path4287" />
    <path
       d="M 137.72397,123.92202 C 130.19089,126.23668 127.76616,125.93487 122.60036,124.88549 C 127.39238,123.44299 132.55817,123.49561 137.72397,123.92202 z "
       style="fill:#ffffff;fill-opacity:1;fill-rule:evenodd;stroke:#000000;stroke-width:1px;stroke-linecap:butt;stroke-linejoin:miter;stroke-opacity:1"
       id="path4751" />
    <path
       d="M 119.28752,115.66851 C 116.24803,124.03812 120.24924,129.27166 124.30928,126.94545 C 128.43547,124.58135 120.56498,122.7166 119.28752,115.66851 z "
       style="fill:#ffffff;fill-opacity:1;fill-rule:evenodd;stroke:#000000;stroke-width:1px;stroke-linecap:butt;stroke-linejoin:miter;stroke-opacity:1"
       id="path4289" />
  </g>
</svg>

<svg xmlns="http://www.w3.org/2000/svg" version="1.0" width="229.922" height="269.317"><path d="m75.453 63.057 4.144 174.067c2.96 124.333 216.674 124.333 219.634 0l4.144-174.067H75.453z" style="fill:#2166ba;fill-opacity:1;fill-rule:evenodd;stroke:#000;stroke-width:2;stroke-linecap:butt;stroke-miterlimit:4;stroke-dashoffset:0;stroke-opacity:1" transform="translate(-74.453 -62.057)"/><path d="m206.078 211.104 22.29 1.437-3.102 23.607c.135 4.2.164 7.62 1.173 9.448 1.028 1.863 2.257 4.354.073 4.88-2.234.538-26.73 24.348-26.73 24.348s-1.459.659-1.833-.836c-.483-1.934.093-2.58.093-2.58l-3.916 4.34s2.087 3.832.305 7.228c-1.838 3.502-9.08 5.772-12.196 5.772-3.114 0 .21-3.721 1.262-5.063l4.764-7.792-4.764 7.792s-2.91.212-4.954.058c.598-2.974 4.136-7.004 6.378-10.368 2.243-3.364 4.064-5.163 16.764-13.567 12.638-8.363 6.386-15.831 1.96-22.436-4.386-6.544-6.626-13.237-3.76-18.968 2.866-5.731 4.283-6.32 6.193-7.3z" style="fill:#fff;fill-opacity:1;fill-rule:evenodd;stroke:#000;stroke-width:1px;stroke-linecap:butt;stroke-linejoin:miter;stroke-opacity:1" transform="translate(-74.453 -62.057)"/><path d="M218.665 222.362c-7.603-3.408-17.944-6.897-11.465-7.644 6.478-.748 15.45 1.993 15.45 1.993l-3.985 5.65z" style="fill:none;fill-opacity:.75;fill-rule:evenodd;stroke:#000;stroke-width:1px;stroke-linecap:butt;stroke-linejoin:miter;stroke-opacity:1" transform="translate(-74.453 -62.057)"/><path d="m178.036 175.646-28.027 1.194c-4.162-2.376-14.857-7.247-11.4-11.164-3.65 5.09-8.784-.003-10.507.052-1.599.05-8.08 2.561-13.279 4.36l.1-3.735-3.11 1.273s-4.784 7.791-9.984 8.046c-5.2.255-7.904-3.07-8.776-4.407-.871-1.337 1.294-1.244 3.503-2.453 2.277-1.246 6.392-3.39 6.392-3.39l-6.023 2.737s-2.464-2.45-1.966-3.848c.5-1.403 8.855-4.389 16.489-4.839 7.721-.45 20.393-4.94 24.737-4.128 4.429.829 19.849 5.97 23.477 6.68M115.321 126.341c12.114 1.586 27.805 5.629 22.889-4.937-5.73.328-18.646-3.01-22.89 4.937z" style="fill:#fff;fill-opacity:1;fill-rule:evenodd;stroke:#000;stroke-width:1px;stroke-linecap:butt;stroke-linejoin:miter;stroke-opacity:1" transform="translate(-74.453 -62.057)"/><path d="M225.266 236.148c-1.124-1.465-8.452-9.702-6.193-17.694l-1.01-13.59 1.01 13.59c-4.706-1.92-12.008-5.97-16.234-8.596-5.217-3.24-16.64-11.763-23.16-19.834-6.647-8.228-21.41-22.566-22.304-26.951-.693-3.401-2.846-9.724-1.259-20.744l-.498 2.74s-7.102-3.114-7.725-5.108c-.623-1.993-.997-3.24-.997-3.24-4.894-.745-9.841-.934-13.52-5.026-6.062-.002-11.947-.53-15.28-1.415-3.332-.886-8.489-2.557-5.332-3.9 3.082-1.31 24.266 2.663 24.912-.498.647-3.16-2.133-11.583-6.272-13.41-4.214-1.86-3.3-.65-5.427-1.185-2.127-.536-4.483-2.257-5.495-.73-.971 1.467-16.142-4.043-15.064-10.283 19.159-.924 19.049-3.48 22.519-5.133 3.47-1.654 5.55-2.396 9.161-3.103 3.61-.707 6.833-.994 9.852-1.747 3.04-.758 8.138-5.139 11.035-12.955.342 2.404.492 6.747-.152 11.205 1.822-2.15 3.516-8.052 5.759-12.123.492 4.573 1.248 7.735-.374 11.339l7.974-9.22.786 15.382 7.936-2.3c5.543-.539 10.294-.373 15.574.498-4.652.665-8.598 2.034-13.955 1.994l13.706 2.118c-3.665.525-5.128 1.666-10.466 2.367 5.45.307 12.575 1.143 15.823 2.243-3.317.71-6.811 1.246-10.217 1.869 5.4 1.246 12.649 1.699 16.198 3.738-3.665-.192-6.713.057-10.466.747 7.628.998 11.732 2.965 17.07 5.109-3.473.072-5.36.498-9.713.483 7.605.976 11.07 2.482 14.447 4.251l-8.597.748c4.665.805 8.097 2.14 11.265 4.09-2.804.249-6.49.146-9.646.395 9.748 1.387 12.447 3.831 16.82 5.482-2.912.612-5.207.695-8.472.25 10.807 2.578 9.545 3.747 11.19 4.916-2.663-.565-5.767-.16-7.02-.197 5.581 1.92 7.991 3.84 9.785 5.497l-4.984.125c5.909 1.796 9.791 3.591 11.295 5.564-1.568.073-4.193-.207-5.938.042 5.515 1.58 9.004 4.745 10.466 6.853-2.32-.55-4.553-1.364-7.226-1.121 5.592 2.47 7.307 4.676 8.846 6.354l-5.856.125c5.474 2.362 8.568 4.9 10.341 7.35-1.952-.332-2.996-.862-4.71-1.172 7.889 8.852 17.234 20.712 18.364 28.738 1.118 7.94 3.441 12.59 9.732 12.264 6.286-.325 7.825-5.636 7.937-8.904.113-3.265-2.443-6.11-6.234-6.198-3.702-.087-4.399 3.118-5.227 5.813-1.532-1.181-2.575-5.83 1.124-8.6 2.782-2.083 10.304-1.888 13.71 5.808 3.372 7.621-2.991 17.857-9.97 18.446-6.892.58-7.37-1.034-8.653-1.964-.138 5.062-.801 11.154-3.351 18.598-2.56 7.471-8.1 12.997-7.628 17.599.472 4.61 7.303 7.303 7.308 10.858.005 3.467-17.498 27.271-18.492 30.559-1 3.312-3.037 4.328-3.327 2.722-.305-1.692-1.048-2.963-1.048-2.963s-3.422 2.529-3.298 5.643c.125 3.115-.373 10.017-7.439 11.557-6.856 1.495-7.08.742-4.838-2.872 2.243-3.613 5.358-10.216 5.358-10.216l-4.112 7.6s-3.206.409-4.983.125c.249-2.399 3.52-6.92 5.804-10.424 2.324-3.564 4.501-5.432 9.271-8.794 4.041-2.849 2.684-2.428 6.823-7.746 4.172-5.361 3.488-10.773-.374-14.76s-13.805-15.35-16.665-19.078z" style="fill:#fff;fill-opacity:1;fill-rule:evenodd;stroke:#000;stroke-width:1px;stroke-linecap:butt;stroke-linejoin:miter;stroke-opacity:1" transform="translate(-74.453 -62.057)"/><path d="M186.029 183.125c-1.18 2.343-3.92 5.133-6.509 6.12-8.167-.686-18.815-.731-22.003-1.901-3.043-1.117-8.466-1.486-10.246-.247-1.74 1.21-4.96 1.477-8.1-.164-3.96 3.046-8.458 7.713-13.501 10.217l-.602-3.34-4.337 2.468s-1.495 9.344-6.354 11.213c-4.859 1.87-10.59.997-11.836 0-1.246-.997-3.115-1.62.498-3.488 3.613-1.87 8.472-7.102 8.472-7.102l-5.73 5.233s-3.416-1.084-3.38-2.568c.036-1.488 8.401-7.477 15.264-10.306 6.831-2.816 18.711-12.014 23.09-12.6 4.467-.599 7.917-.505 10.762-2.152 2.882-1.669 18.186-8.121 23.661-3.839" style="fill:#fff;fill-opacity:1;fill-rule:evenodd;stroke:#000;stroke-width:1px;stroke-linecap:butt;stroke-linejoin:miter;stroke-opacity:1" transform="translate(-74.453 -62.057)"/><path d="M143.164 103.557a2.335 2.335 0 1 1-4.669 0 2.335 2.335 0 1 1 4.67 0z" transform="translate(-75.775 -63.202)" style="opacity:1;fill:#000;fill-opacity:1;fill-rule:evenodd;stroke:none;stroke-width:1;stroke-linecap:round;stroke-linejoin:miter;stroke-miterlimit:4;stroke-dasharray:none;stroke-dashoffset:0;stroke-opacity:1"/><path d="M134.795 101.927c1.278-4.552 7.112-4.14 8.68-1.409l-8.005.139" style="fill:none;fill-opacity:.75;fill-rule:evenodd;stroke:#000;stroke-width:1px;stroke-linecap:butt;stroke-linejoin:miter;stroke-opacity:1" transform="translate(-74.453 -62.057)"/><path d="M102.374 97.17c-.044 8.017 6.491 15.007 8.457 13.126 2.012-1.923-3.48-9.162-8.457-13.127z" style="fill:#fff;fill-opacity:1;fill-rule:evenodd;stroke:#000;stroke-width:1px;stroke-linecap:butt;stroke-linejoin:miter;stroke-opacity:1" transform="translate(-74.453 -62.057)"/><path d="M113.822 107.076c7.6-3.613 11.68 1.308 13.082 4.236" style="fill:none;fill-opacity:.75;fill-rule:evenodd;stroke:#000;stroke-width:1px;stroke-linecap:butt;stroke-linejoin:miter;stroke-opacity:1" transform="translate(-74.453 -62.057)"/><path d="M114.264 96.277c-6.237 3.107-5.199 8.782-3.552 12.106 1.646 3.323 7.28 4.665 9.103 2.519 1.866-2.196-1.527-3.475-4.507-4.77-2.98-1.296-2.986-6.364-1.044-9.855zM161.443 94.525c14.36-18.148 26.254-16.034 26.254-16.034-.282 2.719-2.637 4.242-4.152 6.003 1.019-.488 2.23-.758 3.158-.818-1.098 1.876-5.87 6.604-7.707 8.189.549-.137 1.12-.06 1.465-.106-2.47 2.722-4.768 5.453-7.83 7.524" style="fill:#fff;fill-opacity:1;fill-rule:evenodd;stroke:#000;stroke-width:1px;stroke-linecap:butt;stroke-linejoin:miter;stroke-opacity:1" transform="translate(-74.453 -62.057)"/><path d="M146.995 137.048c20.958-.95 24.197-20.012 24.197-21.88 0-1.87-.748-10.093-2.99-12.71-2.243-2.616-2.118-5.357 1.993-11.213 4.112-5.856 9.968-8.098 9.968-8.098" style="fill:none;fill-opacity:.75;fill-rule:evenodd;stroke:#000;stroke-width:1px;stroke-linecap:butt;stroke-linejoin:miter;stroke-opacity:1" transform="translate(-74.453 -62.057)"/><path d="M114.267 117.873c.573 6.784 2.263 11.924 4.23 10.044 2.01-1.924.043-5.463-4.23-10.044zM137.724 123.922c-7.533 2.315-9.958 2.013-15.124.963 4.792-1.442 9.958-1.39 15.124-.963z" style="fill:#fff;fill-opacity:1;fill-rule:evenodd;stroke:#000;stroke-width:1px;stroke-linecap:butt;stroke-linejoin:miter;stroke-opacity:1" transform="translate(-74.453 -62.057)"/><path d="M119.288 115.669c-3.04 8.37.961 13.603 5.021 11.276 4.126-2.364-3.744-4.228-5.021-11.276z" style="fill:#fff;fill-opacity:1;fill-rule:evenodd;stroke:#000;stroke-width:1px;stroke-linecap:butt;stroke-linejoin:miter;stroke-opacity:1" transform="translate(-74.453 -62.057)"/></svg>
